assets/dice/d12.svg

<svg width="100%" height="100%" version="1.1" viewBox="0 0 100 100" xmlns="http://www.w3.org/2000/svg">
 <path d="m85.484 37.672-12.418-17.098c-0.37109-0.51172-0.89844-0.89062-1.5-1.0898l-20.098-6.5273c-0.60156-0.19922-1.25-0.19922-1.8516 0l-20.098 6.5273c-0.60156 0.19922-1.1289 0.57812-1.5 1.0898l-12.422 17.098c-0.37109 0.51172-0.57031 1.1289-0.57031 1.7578v21.125c0 0.62891 0.19922 1.25 0.57031 1.7578l12.418 17.098c0.37109 0.51172 0.89844 0.89062 1.5 1.0898l20.098 6.5273c0.30078 0.10156 0.60938 0.14844 0.92969 0.14844 0.32031 0 0.62891-0.050781 0.92969-0.14844l20.098-6.5273c0.60156-0.19922 1.1289-0.57812 1.5-1.0898l12.414-17.094c0.37109-0.51172 0.57031-1.1289 0.57031-1.7578v-21.125c0-0.63281-0.20313-1.25-0.57031-1.7617zm-7.0586 0.49219-9.3398 4.0078-15.547-11.297v-10.93l15.238 4.9492zm-18.836 25.793h-18.098l-5.5898-17.207 14.637-10.637 14.637 10.637zm-27.297-39.062 15.238-4.9492v10.938l-15.539 11.289-9.3398-4.0078zm-11.266 34.695v-15.598l8.918 3.8281 6.0078 18.484-5.3477 6.457zm29.512 21.445-14.969-4.8594 5.1484-6.2188h19.625l5.1484 6.2188zm19.938-8.2695-5.3477-6.457 6.0078-18.484 8.918-3.8281v15.598z"/>
</svg>

<svg xmlns="http://www.w3.org/2000/svg" viewBox="0 0 100 100"><path d="M85.484 37.672 73.066 20.574a3.024 3.024 0 0 0-1.5-1.09l-20.098-6.527c-.602-.2-1.25-.2-1.852 0l-20.098 6.527c-.601.2-1.128.578-1.5 1.09L15.596 37.672a2.998 2.998 0 0 0-.57 1.758v21.125c0 .629.2 1.25.57 1.758L28.014 79.41c.371.511.899.89 1.5 1.09l20.098 6.527a2.988 2.988 0 0 0 1.86 0L71.57 80.5a3.024 3.024 0 0 0 1.5-1.09l12.414-17.093c.37-.512.57-1.13.57-1.758V39.434c0-.633-.203-1.25-.57-1.762zm-7.059.492-9.34 4.008L53.54 30.875v-10.93l15.238 4.95zM59.59 63.957H41.491l-5.59-17.207L50.54 36.113 65.176 46.75zM32.292 24.895l15.238-4.949v10.938L31.991 42.173l-9.34-4.008zM21.026 59.59V43.992l8.918 3.828 6.008 18.484-5.347 6.457zm29.512 21.445-14.969-4.86 5.149-6.218h19.625l5.148 6.219zm19.938-8.27L65.13 66.31l6.007-18.484 8.919-3.828v15.598z"/></svg>
